static/img/icons-concept-style-dont-2.svg

<svg width="240" height="240" viewBox="0 0 240 240" fill="none" xmlns="http://www.w3.org/2000/svg"><path fill="#fff" d="M0 0h240v240H0z"/><path stroke="#DFDFDF" d="M39.5 39.5h160v160h-160z"/><path d="M49.5 39.5v160m10-160v160m10-160v160m10-160v160m10-160v160m10-160v160m10-160v160m10-160v160m10-160v160m10-160v160m10-160v160m10-160v160m10-160v160m10-160v160m10-160v160m10-150h-160m160 10h-160m160 10h-160m160 10h-160m160 10h-160m160 10h-160m160 10h-160m160 10h-160m160 10h-160m160 10h-160m160 10h-160m160 10h-160m160 10h-160m160 10h-160m160 10h-160" stroke="#DFDFDF" stroke-linecap="square"/><path fill-rule="evenodd" clip-rule="evenodd" d="M211 39c5.523 0 10-4.477 10-10s-4.477-10-10-10-10 4.477-10 10 4.477 10 10 10Z" fill="#DB3B21"/><path d="m214 26-6 6.002M208 26l6 6.002" stroke="#fff" stroke-width="2" stroke-linecap="round"/><path fill-rule="evenodd" clip-rule="evenodd" d="M49 89.286C49 67.036 67.037 49 89.286 49h60.428C171.963 49 190 67.037 190 89.286v60.428C190 171.963 171.963 190 149.714 190H89.286C67.036 190 49 171.963 49 149.714V89.286Zm40.286-25.179h60.428c12.181 0 22.342 8.65 24.675 20.143H64.611c2.333-11.493 12.493-20.143 24.675-20.143Zm-25.179 35.25v30.214h47.839V99.357H64.107Zm62.947 0v30.214h47.839V99.357h-47.839ZM64.107 144.68h47.839v30.214h-22.66c-13.906 0-25.179-11.273-25.179-25.179v-5.035Zm62.947 0v30.214h22.66c13.906 0 25.179-11.273 25.179-25.179v-5.035h-47.839Z" fill="#6E49CB" fill-opacity=".3" stroke="#6E49CB"/></svg>

<svg width="240" height="240" viewBox="0 0 240 240" xmlns="http://www.w3.org/2000/svg"><g fill="none" fill-rule="evenodd"><path fill="#FFF" d="M0 0h240v240H0z"/><g stroke="#DFDFDF"><path d="M39.5 39.5h160v160h-160z"/><g stroke-linecap="square"><path d="M49.5 39.5v160M59.5 39.5v160M69.5 39.5v160M79.5 39.5v160M89.5 39.5v160M99.5 39.5v160M109.5 39.5v160M119.5 39.5v160M129.5 39.5v160M139.5 39.5v160M149.5 39.5v160M159.5 39.5v160M169.5 39.5v160M179.5 39.5v160M189.5 39.5v160M199.5 49.5h-160M199.5 59.5h-160M199.5 69.5h-160M199.5 79.5h-160M199.5 89.5h-160M199.5 99.5h-160M199.5 109.5h-160M199.5 119.5h-160M199.5 129.5h-160M199.5 139.5h-160M199.5 149.5h-160M199.5 159.5h-160M199.5 169.5h-160M199.5 179.5h-160M199.5 189.5h-160"/></g></g><g transform="translate(201 19)"><circle fill="#DB3B21" cx="10" cy="10" r="10"/><path d="M13 7l-6 6.002M7 7l6 6.002" stroke="#FFF" stroke-width="2" stroke-linecap="round"/></g><path d="M150 49c22.091 0 40 17.909 40 40v61c0 22.091-17.909 40-40 40H89c-22.091 0-40-17.909-40-40V89c0-22.091 17.909-40 40-40h61zm-41 101H70c0 10.493 8.507 19 19 19h20v-19zm60 0h-39v19h20c10.493 0 19-8.507 19-19zm-60-40H70v19h39v-19zm60 0h-39v19h39v-19zm-19-40H89c-10.38 0-18.817 8.325-18.997 18.662L70 89h99c0-10.493-8.507-19-19-19z" stroke="#6E49CB" fill-opacity=".3" fill="#6E49CB"/></g></svg>
